dist/svgs/crypto-icons/icons/chz.svg

<svg width="475" height="512" xmlns="http://www.w3.org/2000/svg"><g fill="#000" fill-rule="nonzero"><path d="M238.153352,511.413181 L13.8636103,17.3991977 L462.399083,18.2720917 L238.153352,511.413181 Z M52.6083668,42.4123782 L238.168023,451.124814 L423.691003,43.1312321 L52.6083668,42.4123782 Z"/><path transform="rotate(-36.1 289.7 143.2)" d="M98.8967446 130.68511L480.472188 130.68511 480.472188 155.62612 98.8967446 155.62612z"/><path transform="rotate(-53.7 187.7 143)" d="M175.184941 -47.8578032L200.125363 -47.8578032 200.125363 333.708644 175.184941 333.708644z"/><path d="M32.8325501 65.2176504C24.1989685 65.2176504 16.0861891 61.8581089 9.98326648 55.7551862 3.88034384 49.6522636.520802292 41.5394842.520802292 32.9059026.520802292 15.088596 15.0152436.586819484 32.8398854.586819484 50.6645272.586819484 65.1589685 15.0812607 65.1589685 32.9059026 65.1589685 50.7305444 50.6498567 65.2176504 32.8325501 65.2176504zM442.491232 65.2176504C433.85765 65.2176504 425.744871 61.8581089 419.641948 55.7551862 413.539026 49.6522636 410.179484 41.5394842 410.179484 32.9059026 410.179484 15.088596 424.673926.586819484 442.498567.586819484 460.323209.586819484 474.81765 15.0812607 474.81765 32.9059026 474.81765 50.7305444 460.308539 65.2176504 442.491232 65.2176504zM341.367564 280.785788C332.733983 280.785788 324.621203 277.426246 318.518281 271.323324 312.415358 265.220401 309.055817 257.100287 309.055817 248.47404 309.055817 230.656734 323.550258 216.154957 341.3749 216.154957 350.008481 216.154957 358.121261 219.514499 364.224183 225.617421 370.327106 231.720344 373.686648 239.833123 373.686648 248.466705 373.686648 266.291347 359.184871 280.785788 341.367564 280.785788zM238.674155 511.112436C230.040573 511.112436 221.927794 507.752894 215.824871 501.649971 209.721948 495.547049 206.362407 487.434269 206.362407 478.800688 206.362407 460.983381 220.856848 446.481605 238.68149 446.481605 247.315072 446.481605 255.427851 449.841146 261.530774 455.944069 267.633696 462.046991 270.993238 470.159771 270.993238 478.793352 270.993238 496.617994 256.491461 511.112436 238.674155 511.112436zM138.093295 280.785788C120.275989 280.785788 105.774212 266.291347 105.774212 248.466705 105.774212 230.642063 120.268653 216.147622 138.093295 216.147622 146.726877 216.147622 154.839656 219.507163 160.942579 225.610086 167.045501 231.713009 170.405043 239.825788 170.405043 248.45937 170.405043 266.291347 155.910602 280.785788 138.093295 280.785788z"/></g></svg>

<svg xmlns="http://www.w3.org/2000/svg" viewBox="0 0 475 512"><path d="M238.153 511.413L13.863 17.4l448.536.873-224.246 493.141zm-185.545-469l185.56 408.712L423.691 43.13l-371.083-.719z"/><path d="M128.16 245.509L436.467 20.686l14.695 20.152L142.854 265.66z"/><path d="M26.473 40.096l14.765-20.1 307.515 225.892-14.765 20.1z"/><path d="M32.833 65.218c-8.634 0-16.747-3.36-22.85-9.463C3.88 49.652.521 41.54.521 32.905.52 15.09 15.015.588 32.84.588c17.825 0 32.319 14.494 32.319 32.319 0 17.825-14.51 32.312-32.326 32.312zm409.658 0c-8.633 0-16.746-3.36-22.85-9.463-6.102-6.103-9.462-14.216-9.462-22.85C410.18 15.09 424.674.588 442.5.588c17.824 0 32.319 14.494 32.319 32.319 0 17.825-14.51 32.312-32.327 32.312zM341.368 280.786c-8.634 0-16.747-3.36-22.85-9.463-6.103-6.103-9.462-14.223-9.462-22.849 0-17.817 14.494-32.319 32.319-32.319 8.633 0 16.746 3.36 22.85 9.462 6.102 6.103 9.462 14.216 9.462 22.85 0 17.824-14.502 32.319-32.32 32.319zM238.674 511.112c-8.633 0-16.746-3.36-22.85-9.462-6.102-6.103-9.462-14.216-9.462-22.85 0-17.817 14.495-32.318 32.32-32.318 8.633 0 16.746 3.36 22.849 9.462 6.103 6.103 9.462 14.216 9.462 22.85 0 17.824-14.502 32.318-32.319 32.318zm-100.58-230.326c-17.818 0-32.32-14.495-32.32-32.32 0-17.824 14.495-32.318 32.32-32.318 8.633 0 16.746 3.36 22.849 9.462 6.103 6.103 9.462 14.216 9.462 22.85 0 17.831-14.494 32.326-32.312 32.326z"/></svg>
